docs/assets/images/components/autocomplete.svg

<svg width="64" height="64"><g fill="none" fill-rule="evenodd"><path fill="#97BDFF" d="M7 24h51V8H7z"/><path fill="#6DA3F2" d="M7 25h51v-4H7z"/><path d="M6.74705881 26C6.33446962 26 6 25.658677 6 25.2376338V7.76236622C6 7.34132298 6.33446962 7 6.74705882 7H57.2529412C57.6655304 7 58 7.34132298 58 7.76236622V25.2376338C58 25.658677 57.6655304 26 57.2529412 26H6.74705882zm.74705882-1.5247324H56.5058824V8.52473244H7.49411763V24.4752676z" fill="#457AE6" fill-rule="nonzero"/><path d="M6.74705881 26C6.33446962 26 6 25.658677 6 25.2376338V7.76236622C6 7.34132298 6.33446962 7 6.74705882 7H57.2529412C57.6655304 7 58 7.34132298 58 7.76236622V25.2376338C58 25.658677 57.6655304 26 57.2529412 26H6.74705882zm.74705882-1.5247324H56.5058824V8.52473244H7.49411763V24.4752676z" fill="#457AE6" fill-rule="nonzero"/><path d="M14.63525766 15.55591723l-.25410306-.98070216c-.05922186-.21832132-.13152761-.50011626-.21622863-.84608231-.08470102-.34596605-.14047974-.5942804-.16733616-.74424552-.02410192.13950244-.07161713.36828644-.14323425.68704952-.0709285.31876308-.22931252.94652406-.47377482 1.88398047h1.25467692zM15.25639849 18l-.29060026-1.1202046h-1.91644669L12.7511764 18H11l1.9247102-6h2.12647768L17 18h-1.74360151z" fill="#FFF"/><path d="M57.0190562 43H7.98094377C7.43942045 43 7 42.568131 7 42.0342517v-7.0685034C7 34.4326136 7.43942045 34 7.98094377 34H57.0190562C57.5605795 34 58 34.4326136 58 34.9657483v7.0685034C58 42.568131 57.5605795 43 57.0190562 43" fill="#CADEFF"/><path d="M57.1861903 40H7.81380967C7.36455043 40 7 39.6526126 7 39.2237838v-4.4482883C7 34.3473874 7.36455043 34 7.81380967 34H57.1861903C57.6354496 34 58 34.3473874 58 34.7754955v4.4482883C58 39.6526126 57.6354496 40 57.1861903 40" fill="#FFF" opacity=".69984149"/><path d="M57.0190562 54H7.98094377C7.43942045 54 7 53.5673864 7 53.0342517v-7.0685034C7 45.431869 7.43942045 45 7.98094377 45H57.0190562C57.5605795 45 58 45.431869 58 45.9657483v7.0685034C58 53.5673864 57.5605795 54 57.0190562 54" fill="#CADEFF"/><path d="M57.1861903 53H7.81380967C7.36455043 53 7 52.6532917 7 52.2244113v-4.4488226C7 47.3467083 7.36455043 47 7.81380967 47H57.1861903C57.6354496 47 58 47.3467083 58 47.7755887v4.4488226C58 52.6532917 57.6354496 53 57.1861903 53" fill="#FFF" opacity=".69984149"/><path d="M57.0190562 34H7.98094377C7.43942045 34 7 33.5674222 7 33.033587v-7.0679186C7 25.4325778 7.43942045 25 7.98094377 25H57.0190562C57.5605795 25 58 25.4325778 58 25.9656684v7.0679186C58 33.5674222 57.5605795 34 57.0190562 34" fill="#CADEFF"/><path d="M57.1861903 31H7.81380967C7.36455043 31 7 30.6533333 7 30.2245045v-4.4482883C7 25.3473874 7.36455043 25 7.81380967 25H57.1861903C57.6354496 25 58 25.3473874 58 25.7762162v4.4482883C58 30.6533333 57.6354496 31 57.1861903 31" fill="#FFF" opacity=".69984149"/><path d="M6 45V34h52v11H6zm50.5058824-1.5642304v-7.8715392H7.49411763v7.8715392H56.5058824z" fill="#457AE6" fill-rule="nonzero"/><path d="M6 54V43h52v11H6zm50.5058824-1.5642304v-7.8715392H7.49411763v7.8715392H56.5058824zM6 36V25h52v11H6zm50.5058824-1.5642304v-7.8715392H7.49411763v7.8715392H56.5058824z" fill="#457AE6" fill-rule="nonzero"/><path stroke="#FFF" d="M8 9h48v15H8z"/><path fill="#FFF" d="M18 11h1v9h-1z"/><path d="M14.0293814 30.9632644l-.2117526-.8172518c-.0493515-.1819345-.1096063-.4167636-.1801905-.7050686-.0705842-.2883051-.1170664-.4952337-.1394468-.6202046-.0200849.116252-.0596809.3069053-.1193619.5725412-.059107.2656359-.1910937.7887701-.3948123 1.5699838h1.0455641zM14.5469987 33l-.2421668-.9335038H12.707793L12.4593137 33H11l1.6039252-5h1.7720647L16 33h-1.4530013zM14.0293814 39.9632644l-.2117526-.8172518c-.0493515-.1819345-.1096063-.4167636-.1801905-.7050686-.0705842-.2883051-.1170664-.4952337-.1394468-.6202046-.0200849.116252-.0596809.3069053-.1193619.5725412-.059107.2656359-.1910937.7887701-.3948123 1.5699838h1.0455641zM14.5469987 42l-.2421668-.9335038H12.707793L12.4593137 42H11l1.6039252-5h1.7720647L16 42h-1.4530013zM14.0293814 48.9632644l-.2117526-.8172518c-.0493515-.1819345-.1096063-.4167636-.1801905-.7050686-.0705842-.2883051-.1170664-.4952337-.1394468-.6202046-.0200849.116252-.0596809.3069053-.1193619.5725412-.059107.2656359-.1910937.7887701-.3948123 1.5699838h1.0455641zM14.5469987 51l-.2421668-.9335038H12.707793L12.4593137 51H11l1.6039252-5h1.7720647L16 51h-1.4530013zM18.9047012 32.0589262c.1765737 0 .3282868-.0512149.4538645-.1536447.1255777-.1018478.1886853-.2351229.1886853-.3986614v-.3003055l-.3365737.0139677c-.48.0157136-.7203187.1769242-.7203187.4842136 0 .2362869.1376892.3544303.4143426.3544303zm1.0830279.8729813l-.2798407-.511567h-.0299601c-.1969721.2229012-.3971315.3753819-.6011156.4568601C18.8721912 32.9592609 18.6082869 33 18.2844622 33c-.3984064 0-.7120319-.1088317-.9408765-.327077C17.1141036 32.4546777 17 32.1473883 17 31.7522188c0-.4114651.1568127-.7181725.4704382-.9189582.3136255-.2013677.7681275-.3142733 1.363506-.3392987l.7056574-.0209516v-.0541248c0-.3183472-.1714741-.4778117-.5156972-.4778117-.3085259 0-.7005578.0954459-1.1760956.2869198l-.4219921-.8799651C17.9185657 29.1158155 18.5413546 29 19.2929084 29c.5431075 0 .9631872.1227994 1.2608765.3683981.2976892.2455987.4462151.5889713.4462151 1.0295358v2.5339736h-1.0122709zM18.9047012 41.0589262c.1765737 0 .3282868-.0512149.4538645-.1536447.1255777-.1018478.1886853-.2351229.1886853-.3986614v-.3003055l-.3365737.0139677c-.48.0157136-.7203187.1769242-.7203187.4842136 0 .2362869.1376892.3544303.4143426.3544303zm1.0830279.8729813l-.2798407-.511567h-.0299601c-.1969721.2229012-.3971315.3753819-.6011156.4568601C18.8721912 41.9592609 18.6082869 42 18.2844622 42c-.3984064 0-.7120319-.1088317-.9408765-.327077C17.1141036 41.4546777 17 41.1473883 17 40.7522188c0-.4114651.1568127-.7181725.4704382-.9189582.3136255-.2013677.7681275-.3142733 1.363506-.3392987l.7056574-.0209516v-.0541248c0-.3183472-.1714741-.4778117-.5156972-.4778117-.3085259 0-.7005578.0954459-1.1760956.2869198l-.4219921-.8799651C17.9185657 38.1158155 18.5413546 38 19.2929084 38c.5431075 0 .9631872.1227994 1.2608765.3683981.2976892.2455987.4462151.5889713.4462151 1.0295358v2.5339736h-1.0122709zM18.9047012 50.0589262c.1765737 0 .3282868-.0512149.4538645-.1536447.1255777-.1018478.1886853-.2351229.1886853-.3986614v-.3003055l-.3365737.0139677c-.48.0157136-.7203187.1769242-.7203187.4842136 0 .2362869.1376892.3544303.4143426.3544303zm1.0830279.8729813l-.2798407-.511567h-.0299601c-.1969721.2229012-.3971315.3753819-.6011156.4568601C18.8721912 50.9592609 18.6082869 51 18.2844622 51c-.3984064 0-.7120319-.1088317-.9408765-.327077C17.1141036 50.4546777 17 50.1473883 17 49.7522188c0-.4114651.1568127-.7181725.4704382-.9189582.3136255-.2013677.7681275-.3142733 1.363506-.3392987l.7056574-.0209516v-.0541248c0-.3183472-.1714741-.4778117-.5156972-.4778117-.3085259 0-.7005578.0954459-1.1760956.2869198l-.4219921-.8799651C17.9185657 47.1158155 18.5413546 47 19.2929084 47c.5431075 0 .9631872.1227994 1.2608765.3683981.2976892.2455987.4462151.5889713.4462151 1.0295358v2.5339736h-1.0122709zM23.9047012 32.0589262c.1765737 0 .3282868-.0512149.4538645-.1536447.1255777-.1018478.1886853-.2351229.1886853-.3986614v-.3003055l-.3365737.0139677c-.48.0157136-.7203187.1769242-.7203187.4842136 0 .2362869.1376892.3544303.4143426.3544303zm1.0830279.8729813l-.2798407-.511567h-.0299601c-.1969721.2229012-.3971315.3753819-.6011156.4568601C23.8721912 32.9592609 23.6082869 33 23.2844622 33c-.3984064 0-.7120319-.1088317-.9408765-.327077C22.1141036 32.4546777 22 32.1473883 22 31.7522188c0-.4114651.1568127-.7181725.4704382-.9189582.3136255-.2013677.7681275-.3142733 1.363506-.3392987l.7056574-.0209516v-.0541248c0-.3183472-.1714741-.4778117-.5156972-.4778117-.3085259 0-.7005578.0954459-1.1760956.2869198l-.4219921-.8799651C22.9185657 29.1158155 23.5413546 29 24.2929084 29c.5431075 0 .9631872.1227994 1.2608765.3683981.2976892.2455987.4462151.5889713.4462151 1.0295358v2.5339736h-1.0122709zM23.9047012 41.0589262c.1765737 0 .3282868-.0512149.4538645-.1536447.1255777-.1018478.1886853-.2351229.1886853-.3986614v-.3003055l-.3365737.0139677c-.48.0157136-.7203187.1769242-.7203187.4842136 0 .2362869.1376892.3544303.4143426.3544303zm1.0830279.8729813l-.2798407-.511567h-.0299601c-.1969721.2229012-.3971315.3753819-.6011156.4568601C23.8721912 41.9592609 23.6082869 42 23.2844622 42c-.3984064 0-.7120319-.1088317-.9408765-.327077C22.1141036 41.4546777 22 41.1473883 22 40.7522188c0-.4114651.1568127-.7181725.4704382-.9189582.3136255-.2013677.7681275-.3142733 1.363506-.3392987l.7056574-.0209516v-.0541248c0-.3183472-.1714741-.4778117-.5156972-.4778117-.3085259 0-.7005578.0954459-1.1760956.2869198l-.4219921-.8799651C22.9185657 38.1158155 23.5413546 38 24.2929084 38c.5431075 0 .9631872.1227994 1.2608765.3683981.2976892.2455987.4462151.5889713.4462151 1.0295358v2.5339736h-1.0122709zM23.9047012 50.0589262c.1765737 0 .3282868-.0512149.4538645-.1536447.1255777-.1018478.1886853-.2351229.1886853-.3986614v-.3003055l-.3365737.0139677c-.48.0157136-.7203187.1769242-.7203187.4842136 0 .2362869.1376892.3544303.4143426.3544303zm1.0830279.8729813l-.2798407-.511567h-.0299601c-.1969721.2229012-.3971315.3753819-.6011156.4568601C23.8721912 50.9592609 23.6082869 51 23.2844622 51c-.3984064 0-.7120319-.1088317-.9408765-.327077C22.1141036 50.4546777 22 50.1473883 22 49.7522188c0-.4114651.1568127-.7181725.4704382-.9189582.3136255-.2013677.7681275-.3142733 1.363506-.3392987l.7056574-.0209516v-.0541248c0-.3183472-.1714741-.4778117-.5156972-.4778117-.3085259 0-.7005578.0954459-1.1760956.2869198l-.4219921-.8799651C22.9185657 47.1158155 23.5413546 47 24.2929084 47c.5431075 0 .9631872.1227994 1.2608765.3683981.2976892.2455987.4462151.5889713.4462151 1.0295358v2.5339736h-1.0122709z" fill="#457AE6"/></g></svg>

<?xml version="1.0" encoding="UTF-8"?>
<svg width="64px" height="64px" viewBox="0 0 64 64" version="1.1" xmlns="http://www.w3.org/2000/svg" xmlns:xlink="http://www.w3.org/1999/xlink">
    <!-- Generator: Sketch 58 (84663) - https://sketch.com -->
    <title>icon/component/Autocomplete</title>
    <desc>Created with Sketch.</desc>
    <g id="icon/component/Autocomplete" stroke="none" stroke-width="1" fill="none" fill-rule="evenodd">
        <g id="Group-20" transform="translate(6.000000, 7.000000)">
            <g id="Group-2">
                <g id="Group">
                    <g id="Group-3">
                        <polygon id="Fill-1" fill="#97BDFF" points="1 17 52 17 52 1 1 1"></polygon>
                        <polygon id="Fill-2" fill="#6DA3F2" points="1 18 52 18 52 14 1 14"></polygon>
                        <path d="M0.747058815,19 C0.334469624,19 0,18.658677 0,18.2376338 L0,0.762366219 C0,0.341322983 0.334469624,0 0.747058815,0 L51.2529412,0 C51.6655304,0 52,0.341322983 52,0.762366219 L52,18.2376338 C52,18.658677 51.6655304,19 51.2529412,19 L0.747058815,19 Z M1.49411763,17.4752676 L50.5058824,17.4752676 L50.5058824,1.52473244 L1.49411763,1.52473244 L1.49411763,17.4752676 Z" id="Stroke-3" fill="#457AE6" fill-rule="nonzero"></path>
                        <path d="M0.747058815,19 C0.334469624,19 0,18.658677 0,18.2376338 L0,0.762366219 C0,0.341322983 0.334469624,0 0.747058815,0 L51.2529412,0 C51.6655304,0 52,0.341322983 52,0.762366219 L52,18.2376338 C52,18.658677 51.6655304,19 51.2529412,19 L0.747058815,19 Z M1.49411763,17.4752676 L50.5058824,17.4752676 L50.5058824,1.52473244 L1.49411763,1.52473244 L1.49411763,17.4752676 Z" id="Stroke-3" fill="#457AE6" fill-rule="nonzero"></path>
                        <path d="M8.63525766,8.55591723 L8.3811546,7.57521507 C8.32193274,7.35689375 8.24962699,7.07509881 8.16492597,6.72913276 C8.08022495,6.38316671 8.02444623,6.13485236 7.99758981,5.98488724 C7.97348789,6.12438968 7.92597268,6.35317368 7.85435556,6.67193676 C7.78342706,6.99069984 7.62504304,7.61846082 7.38058074,8.55591723 L8.63525766,8.55591723 Z M9.25639849,11 L8.96579823,9.8797954 L7.04935154,9.8797954 L6.7511764,11 L5,11 L6.9247102,5 L9.05118788,5 L11,11 L9.25639849,11 Z" id="Fill-5" fill="#FFFFFF"></path>
                        <path d="M51.0190562,36 L1.98094377,36 C1.43942045,36 1,35.568131 1,35.0342517 L1,27.9657483 C1,27.4326136 1.43942045,27 1.98094377,27 L51.0190562,27 C51.5605795,27 52,27.4326136 52,27.9657483 L52,35.0342517 C52,35.568131 51.5605795,36 51.0190562,36" id="Fill-10" fill="#CADEFF"></path>
                        <path d="M51.1861903,33 L1.81380967,33 C1.36455043,33 1,32.6526126 1,32.2237838 L1,27.7754955 C1,27.3473874 1.36455043,27 1.81380967,27 L51.1861903,27 C51.6354496,27 52,27.3473874 52,27.7754955 L52,32.2237838 C52,32.6526126 51.6354496,33 51.1861903,33" id="Fill-11" fill="#FFFFFF" opacity="0.699841486"></path>
                        <path d="M51.0190562,47 L1.98094377,47 C1.43942045,47 1,46.5673864 1,46.0342517 L1,38.9657483 C1,38.431869 1.43942045,38 1.98094377,38 L51.0190562,38 C51.5605795,38 52,38.431869 52,38.9657483 L52,46.0342517 C52,46.5673864 51.5605795,47 51.0190562,47" id="Fill-13" fill="#CADEFF"></path>
                        <path d="M51.1861903,46 L1.81380967,46 C1.36455043,46 1,45.6532917 1,45.2244113 L1,40.7755887 C1,40.3467083 1.36455043,40 1.81380967,40 L51.1861903,40 C51.6354496,40 52,40.3467083 52,40.7755887 L52,45.2244113 C52,45.6532917 51.6354496,46 51.1861903,46" id="Fill-14" fill="#FFFFFF" opacity="0.699841486"></path>
                        <path d="M51.0190562,27 L1.98094377,27 C1.43942045,27 1,26.5674222 1,26.033587 L1,18.9656684 C1,18.4325778 1.43942045,18 1.98094377,18 L51.0190562,18 C51.5605795,18 52,18.4325778 52,18.9656684 L52,26.033587 C52,26.5674222 51.5605795,27 51.0190562,27" id="Fill-16" fill="#CADEFF"></path>
                        <path d="M51.1861903,24 L1.81380967,24 C1.36455043,24 1,23.6533333 1,23.2245045 L1,18.7762162 C1,18.3473874 1.36455043,18 1.81380967,18 L51.1861903,18 C51.6354496,18 52,18.3473874 52,18.7762162 L52,23.2245045 C52,23.6533333 51.6354496,24 51.1861903,24" id="Fill-17" fill="#FFFFFF" opacity="0.699841486"></path>
                    </g>
                    <path d="M0,38 L0,27 L52,27 L52,38 L0,38 Z M50.5058824,36.4357696 L50.5058824,28.5642304 L1.49411763,28.5642304 L1.49411763,36.4357696 L50.5058824,36.4357696 Z" id="Stroke-12" fill="#457AE6" fill-rule="nonzero"></path>
                    <path d="M0,47 L0,36 L52,36 L52,47 L0,47 Z M50.5058824,45.4357696 L50.5058824,37.5642304 L1.49411763,37.5642304 L1.49411763,45.4357696 L50.5058824,45.4357696 Z" id="Stroke-12-Copy-2" fill="#457AE6" fill-rule="nonzero"></path>
                    <path d="M0,29 L0,18 L52,18 L52,29 L0,29 Z M50.5058824,27.4357696 L50.5058824,19.5642304 L1.49411763,19.5642304 L1.49411763,27.4357696 L50.5058824,27.4357696 Z" id="Stroke-12-Copy" fill="#457AE6" fill-rule="nonzero"></path>
                </g>
            </g>
        </g>
        <rect id="Rectangle" stroke="#FFFFFF" x="8" y="9" width="48" height="15"></rect>
        <rect id="Rectangle" fill="#FFFFFF" x="18" y="11" width="1" height="9"></rect>
        <path d="M14.0293814,30.9632644 L13.8176288,30.1460126 C13.7682773,29.9640781 13.7080225,29.729249 13.6374383,29.440944 C13.5668541,29.1526389 13.5203719,28.9457103 13.4979915,28.8207394 C13.4779066,28.9369914 13.4383106,29.1276447 13.3786296,29.3932806 C13.3195226,29.6589165 13.1875359,30.1820507 12.9838173,30.9632644 L14.0293814,30.9632644 Z M14.5469987,33 L14.3048319,32.0664962 L12.707793,32.0664962 L12.4593137,33 L11,33 L12.6039252,28 L14.3759899,28 L16,33 L14.5469987,33 Z" id="Fill-5" fill="#457AE6"></path>
        <path d="M14.0293814,39.9632644 L13.8176288,39.1460126 C13.7682773,38.9640781 13.7080225,38.729249 13.6374383,38.440944 C13.5668541,38.1526389 13.5203719,37.9457103 13.4979915,37.8207394 C13.4779066,37.9369914 13.4383106,38.1276447 13.3786296,38.3932806 C13.3195226,38.6589165 13.1875359,39.1820507 12.9838173,39.9632644 L14.0293814,39.9632644 Z M14.5469987,42 L14.3048319,41.0664962 L12.707793,41.0664962 L12.4593137,42 L11,42 L12.6039252,37 L14.3759899,37 L16,42 L14.5469987,42 Z" id="Fill-5" fill="#457AE6"></path>
        <path d="M14.0293814,48.9632644 L13.8176288,48.1460126 C13.7682773,47.9640781 13.7080225,47.729249 13.6374383,47.440944 C13.5668541,47.1526389 13.5203719,46.9457103 13.4979915,46.8207394 C13.4779066,46.9369914 13.4383106,47.1276447 13.3786296,47.3932806 C13.3195226,47.6589165 13.1875359,48.1820507 12.9838173,48.9632644 L14.0293814,48.9632644 Z M14.5469987,51 L14.3048319,50.0664962 L12.707793,50.0664962 L12.4593137,51 L11,51 L12.6039252,46 L14.3759899,46 L16,51 L14.5469987,51 Z" id="Fill-5" fill="#457AE6"></path>
        <path d="M18.9047012,32.0589262 C19.0812749,32.0589262 19.232988,32.0077113 19.3585657,31.9052815 C19.4841434,31.8034337 19.547251,31.6701586 19.547251,31.5066201 L19.547251,31.2063146 L19.2106773,31.2202823 C18.7306773,31.2359959 18.4903586,31.3972065 18.4903586,31.7044959 C18.4903586,31.9407828 18.6280478,32.0589262 18.9047012,32.0589262 L18.9047012,32.0589262 Z M19.9877291,32.9319075 L19.7078884,32.4203405 L19.6779283,32.4203405 C19.4809562,32.6432417 19.2807968,32.7957224 19.0768127,32.8772006 C18.8721912,32.9592609 18.6082869,33 18.2844622,33 C17.8860558,33 17.5724303,32.8911683 17.3435857,32.672923 C17.1141036,32.4546777 17,32.1473883 17,31.7522188 C17,31.3407537 17.1568127,31.0340463 17.4704382,30.8332606 C17.7840637,30.6318929 18.2385657,30.5189873 18.8339442,30.4939619 L19.5396016,30.4730103 L19.5396016,30.4188855 C19.5396016,30.1005383 19.3681275,29.9410738 19.0239044,29.9410738 C18.7153785,29.9410738 18.3233466,30.0365197 17.8478088,30.2279936 L17.4258167,29.3480285 C17.9185657,29.1158155 18.5413546,29 19.2929084,29 C19.8360159,29 20.2560956,29.1227994 20.5537849,29.3683981 C20.8514741,29.6139968 21,29.9573694 21,30.3979339 L21,32.9319075 L19.9877291,32.9319075 Z" id="Fill-6" fill="#457AE6"></path>
        <path d="M18.9047012,41.0589262 C19.0812749,41.0589262 19.232988,41.0077113 19.3585657,40.9052815 C19.4841434,40.8034337 19.547251,40.6701586 19.547251,40.5066201 L19.547251,40.2063146 L19.2106773,40.2202823 C18.7306773,40.2359959 18.4903586,40.3972065 18.4903586,40.7044959 C18.4903586,40.9407828 18.6280478,41.0589262 18.9047012,41.0589262 L18.9047012,41.0589262 Z M19.9877291,41.9319075 L19.7078884,41.4203405 L19.6779283,41.4203405 C19.4809562,41.6432417 19.2807968,41.7957224 19.0768127,41.8772006 C18.8721912,41.9592609 18.6082869,42 18.2844622,42 C17.8860558,42 17.5724303,41.8911683 17.3435857,41.672923 C17.1141036,41.4546777 17,41.1473883 17,40.7522188 C17,40.3407537 17.1568127,40.0340463 17.4704382,39.8332606 C17.7840637,39.6318929 18.2385657,39.5189873 18.8339442,39.4939619 L19.5396016,39.4730103 L19.5396016,39.4188855 C19.5396016,39.1005383 19.3681275,38.9410738 19.0239044,38.9410738 C18.7153785,38.9410738 18.3233466,39.0365197 17.8478088,39.2279936 L17.4258167,38.3480285 C17.9185657,38.1158155 18.5413546,38 19.2929084,38 C19.8360159,38 20.2560956,38.1227994 20.5537849,38.3683981 C20.8514741,38.6139968 21,38.9573694 21,39.3979339 L21,41.9319075 L19.9877291,41.9319075 Z" id="Fill-6" fill="#457AE6"></path>
        <path d="M18.9047012,50.0589262 C19.0812749,50.0589262 19.232988,50.0077113 19.3585657,49.9052815 C19.4841434,49.8034337 19.547251,49.6701586 19.547251,49.5066201 L19.547251,49.2063146 L19.2106773,49.2202823 C18.7306773,49.2359959 18.4903586,49.3972065 18.4903586,49.7044959 C18.4903586,49.9407828 18.6280478,50.0589262 18.9047012,50.0589262 L18.9047012,50.0589262 Z M19.9877291,50.9319075 L19.7078884,50.4203405 L19.6779283,50.4203405 C19.4809562,50.6432417 19.2807968,50.7957224 19.0768127,50.8772006 C18.8721912,50.9592609 18.6082869,51 18.2844622,51 C17.8860558,51 17.5724303,50.8911683 17.3435857,50.672923 C17.1141036,50.4546777 17,50.1473883 17,49.7522188 C17,49.3407537 17.1568127,49.0340463 17.4704382,48.8332606 C17.7840637,48.6318929 18.2385657,48.5189873 18.8339442,48.4939619 L19.5396016,48.4730103 L19.5396016,48.4188855 C19.5396016,48.1005383 19.3681275,47.9410738 19.0239044,47.9410738 C18.7153785,47.9410738 18.3233466,48.0365197 17.8478088,48.2279936 L17.4258167,47.3480285 C17.9185657,47.1158155 18.5413546,47 19.2929084,47 C19.8360159,47 20.2560956,47.1227994 20.5537849,47.3683981 C20.8514741,47.6139968 21,47.9573694 21,48.3979339 L21,50.9319075 L19.9877291,50.9319075 Z" id="Fill-6" fill="#457AE6"></path>
        <path d="M23.9047012,32.0589262 C24.0812749,32.0589262 24.232988,32.0077113 24.3585657,31.9052815 C24.4841434,31.8034337 24.547251,31.6701586 24.547251,31.5066201 L24.547251,31.2063146 L24.2106773,31.2202823 C23.7306773,31.2359959 23.4903586,31.3972065 23.4903586,31.7044959 C23.4903586,31.9407828 23.6280478,32.0589262 23.9047012,32.0589262 L23.9047012,32.0589262 Z M24.9877291,32.9319075 L24.7078884,32.4203405 L24.6779283,32.4203405 C24.4809562,32.6432417 24.2807968,32.7957224 24.0768127,32.8772006 C23.8721912,32.9592609 23.6082869,33 23.2844622,33 C22.8860558,33 22.5724303,32.8911683 22.3435857,32.672923 C22.1141036,32.4546777 22,32.1473883 22,31.7522188 C22,31.3407537 22.1568127,31.0340463 22.4704382,30.8332606 C22.7840637,30.6318929 23.2385657,30.5189873 23.8339442,30.4939619 L24.5396016,30.4730103 L24.5396016,30.4188855 C24.5396016,30.1005383 24.3681275,29.9410738 24.0239044,29.9410738 C23.7153785,29.9410738 23.3233466,30.0365197 22.8478088,30.2279936 L22.4258167,29.3480285 C22.9185657,29.1158155 23.5413546,29 24.2929084,29 C24.8360159,29 25.2560956,29.1227994 25.5537849,29.3683981 C25.8514741,29.6139968 26,29.9573694 26,30.3979339 L26,32.9319075 L24.9877291,32.9319075 Z" id="Fill-7" fill="#457AE6"></path>
        <path d="M23.9047012,41.0589262 C24.0812749,41.0589262 24.232988,41.0077113 24.3585657,40.9052815 C24.4841434,40.8034337 24.547251,40.6701586 24.547251,40.5066201 L24.547251,40.2063146 L24.2106773,40.2202823 C23.7306773,40.2359959 23.4903586,40.3972065 23.4903586,40.7044959 C23.4903586,40.9407828 23.6280478,41.0589262 23.9047012,41.0589262 L23.9047012,41.0589262 Z M24.9877291,41.9319075 L24.7078884,41.4203405 L24.6779283,41.4203405 C24.4809562,41.6432417 24.2807968,41.7957224 24.0768127,41.8772006 C23.8721912,41.9592609 23.6082869,42 23.2844622,42 C22.8860558,42 22.5724303,41.8911683 22.3435857,41.672923 C22.1141036,41.4546777 22,41.1473883 22,40.7522188 C22,40.3407537 22.1568127,40.0340463 22.4704382,39.8332606 C22.7840637,39.6318929 23.2385657,39.5189873 23.8339442,39.4939619 L24.5396016,39.4730103 L24.5396016,39.4188855 C24.5396016,39.1005383 24.3681275,38.9410738 24.0239044,38.9410738 C23.7153785,38.9410738 23.3233466,39.0365197 22.8478088,39.2279936 L22.4258167,38.3480285 C22.9185657,38.1158155 23.5413546,38 24.2929084,38 C24.8360159,38 25.2560956,38.1227994 25.5537849,38.3683981 C25.8514741,38.6139968 26,38.9573694 26,39.3979339 L26,41.9319075 L24.9877291,41.9319075 Z" id="Fill-7" fill="#457AE6"></path>
        <path d="M23.9047012,50.0589262 C24.0812749,50.0589262 24.232988,50.0077113 24.3585657,49.9052815 C24.4841434,49.8034337 24.547251,49.6701586 24.547251,49.5066201 L24.547251,49.2063146 L24.2106773,49.2202823 C23.7306773,49.2359959 23.4903586,49.3972065 23.4903586,49.7044959 C23.4903586,49.9407828 23.6280478,50.0589262 23.9047012,50.0589262 L23.9047012,50.0589262 Z M24.9877291,50.9319075 L24.7078884,50.4203405 L24.6779283,50.4203405 C24.4809562,50.6432417 24.2807968,50.7957224 24.0768127,50.8772006 C23.8721912,50.9592609 23.6082869,51 23.2844622,51 C22.8860558,51 22.5724303,50.8911683 22.3435857,50.672923 C22.1141036,50.4546777 22,50.1473883 22,49.7522188 C22,49.3407537 22.1568127,49.0340463 22.4704382,48.8332606 C22.7840637,48.6318929 23.2385657,48.5189873 23.8339442,48.4939619 L24.5396016,48.4730103 L24.5396016,48.4188855 C24.5396016,48.1005383 24.3681275,47.9410738 24.0239044,47.9410738 C23.7153785,47.9410738 23.3233466,48.0365197 22.8478088,48.2279936 L22.4258167,47.3480285 C22.9185657,47.1158155 23.5413546,47 24.2929084,47 C24.8360159,47 25.2560956,47.1227994 25.5537849,47.3683981 C25.8514741,47.6139968 26,47.9573694 26,48.3979339 L26,50.9319075 L24.9877291,50.9319075 Z" id="Fill-7" fill="#457AE6"></path>
    </g>
</svg>
